icons/mobile/24/svg/reader-view-customize-24.svg

<svg width="24" height="24" viewBox="0 0 24 24" fill="none" xmlns="http://www.w3.org/2000/svg">
<path fill-rule="evenodd" clip-rule="evenodd" d="M16.5264 13.2177C17.1111 12.927 17.8059 12.927 18.3896 13.2177C18.6686 13.3577 18.8723 13.611 18.9473 13.913L19.168 14.7978C19.3789 14.8978 19.5869 15.0209 19.7969 15.1718L20.6855 14.9179C20.9855 14.8319 21.3064 14.8807 21.5664 15.0527C22.1093 15.4117 22.4581 16.015 22.4971 16.666C22.5161 16.9769 22.3978 17.2791 22.1729 17.496L21.5098 18.1367C21.5258 18.2556 21.5381 18.376 21.5381 18.4999C21.5381 18.6239 21.5258 18.7442 21.5098 18.8632L22.1729 19.5048C22.3968 19.7208 22.5151 20.023 22.4961 20.3339C22.4571 20.9848 22.1083 21.5882 21.5645 21.9472C21.3045 22.1202 20.9836 22.168 20.6846 22.082L19.7949 21.8281C19.585 21.978 19.377 22.1021 19.166 22.2021L18.9453 23.0869C18.8703 23.3888 18.6667 23.6422 18.3887 23.7822C18.0958 23.9281 17.7779 23.9999 17.458 23.9999C17.1381 23.9999 16.8183 23.927 16.5264 23.7822C16.2474 23.6422 16.0438 23.3888 15.9688 23.0869L15.748 22.2021C15.5371 22.1021 15.3291 21.979 15.1191 21.8281L14.2305 22.082C13.9325 22.169 13.6106 22.1182 13.3496 21.9482C12.8057 21.5882 12.457 20.9848 12.418 20.3339C12.399 20.023 12.5172 19.7208 12.7422 19.5039L13.4053 18.8632C13.3893 18.7442 13.377 18.6239 13.377 18.4999C13.377 18.376 13.3893 18.2556 13.4053 18.1367L12.7422 17.4951C12.5182 17.2791 12.4 16.9769 12.4189 16.666C12.458 16.015 12.8067 15.4117 13.3506 15.0527C13.6096 14.8797 13.9315 14.8309 14.2305 14.9179L15.1201 15.1718C15.3301 15.0219 15.5381 14.8978 15.749 14.7978L15.9697 13.913C16.0447 13.611 16.2484 13.3577 16.5264 13.2177ZM17.458 16.7246C16.478 16.7248 15.6828 17.52 15.6826 18.4999C15.6828 19.4799 16.478 20.2742 17.458 20.2744C18.438 20.2741 19.2322 19.4799 19.2324 18.4999C19.2322 17.52 18.438 16.7248 17.458 16.7246Z" fill="black"/>
<path d="M5.58887 1.39643C8.80387 0.86943 12.1412 0.866641 15.3682 1.38764C16.8939 1.63466 17.9998 2.93375 18 4.47651V11.5634C17.82 11.5354 17.641 11.4999 17.459 11.4999C17.044 11.4999 16.639 11.5953 16.25 11.7343V4.47651C16.2498 3.79772 15.7617 3.22511 15.0889 3.11713C12.0479 2.62416 8.90203 2.62701 5.87109 3.12299C5.23123 3.22797 4.7502 3.80774 4.75 4.47456V17.4853C4.75018 18.1691 5.23219 18.7651 5.87207 18.8701C7.60804 19.1571 9.38233 19.2616 11.1543 19.2206C10.9853 19.5946 10.8959 20.0029 10.9209 20.4238C10.9319 20.6128 10.9805 20.7955 11.0215 20.9785C10.8475 20.9815 10.673 20.999 10.5 20.999C8.857 20.999 7.20291 20.8636 5.58691 20.5956C4.0881 20.3486 3.00017 19.0411 3 17.4853V4.47358C3.00019 2.93383 4.08911 1.6395 5.58887 1.39643Z" fill="black"/>
<path d="M11.125 14.2499C11.372 14.2499 11.593 14.3545 11.752 14.5195C11.3981 14.9494 11.1504 15.4531 11.0254 15.9999H7.875C7.39202 15.9999 7.00003 15.6079 7 15.1249C7.00003 14.642 7.39202 14.2499 7.875 14.2499H11.125Z" fill="black"/>
<path d="M13.125 10.1249C13.6082 10.1249 14 10.5167 14 10.9999C14 11.4832 13.6082 11.8749 13.125 11.8749H7.875C7.39177 11.8749 7.00003 11.4832 7 10.9999C7.00003 10.5167 7.39177 10.1249 7.875 10.1249H13.125Z" fill="black"/>
<path d="M13.125 5.99995C13.608 5.99995 14 6.39197 14 6.87495C14 7.35792 13.608 7.74995 13.125 7.74995H7.875C7.39202 7.74995 7.00003 7.35792 7 6.87495C7.00003 6.39197 7.39202 5.99995 7.875 5.99995H13.125Z" fill="black"/>
</svg>

<!-- This Source Code Form is subject to the terms of the Mozilla Public
   - License, v. 2.0. If a copy of the MPL was not distributed with this
   - file, You can obtain one at http://mozilla.org/MPL/2.0/. -->
<svg xmlns="http://www.w3.org/2000/svg" width="24" height="24" fill="none" viewBox="0 0 24 24">
    <path fill="#000" fill-rule="evenodd" d="M16.526 13.218a2.1 2.1 0 0 1 1.864 0c.279.14.482.393.557.695l.221.885q.315.149.629.374l.889-.254c.3-.086.62-.037.88.135.543.359.892.962.931 1.613.02.31-.1.613-.324.83l-.663.64c.016.12.028.24.028.364s-.012.244-.028.363l.663.642c.224.216.342.518.323.829a2.1 2.1 0 0 1-.931 1.613c-.26.173-.581.221-.88.135l-.89-.254q-.314.224-.629.374l-.22.885a1.07 1.07 0 0 1-.557.695 2.1 2.1 0 0 1-1.862 0 1.07 1.07 0 0 1-.558-.695l-.221-.885q-.315-.149-.629-.374l-.889.254c-.298.087-.62.036-.88-.134a2.1 2.1 0 0 1-.932-1.614c-.019-.311.1-.613.324-.83l.663-.64a3 3 0 0 1-.028-.364c0-.124.012-.244.028-.363l-.663-.642a1.06 1.06 0 0 1-.323-.829 2.1 2.1 0 0 1 .932-1.613c.259-.173.58-.222.88-.135l.89.254q.313-.225.628-.374l.22-.885c.076-.302.28-.555.557-.695m.932 3.507a1.776 1.776 0 1 0 0 3.548 1.776 1.776 0 0 0 0-3.548" clip-rule="evenodd" />
    <path fill="#000" d="M5.589 1.396a30.6 30.6 0 0 1 9.78-.008A3.12 3.12 0 0 1 18 4.477v7.086c-.18-.028-.359-.063-.541-.063-.415 0-.82.095-1.209.234V4.477c0-.68-.488-1.252-1.161-1.36a28.8 28.8 0 0 0-9.218.006c-.64.105-1.12.685-1.121 1.352v13.01c0 .684.482 1.28 1.122 1.385a28.3 28.3 0 0 0 5.282.35 2.55 2.55 0 0 0-.233 1.204c.01.189.06.372.1.555-.174.003-.348.02-.521.02-1.643 0-3.297-.135-4.913-.403C4.088 20.349 3 19.04 3 17.486V4.473c0-1.54 1.09-2.835 2.589-3.078" />
    <path fill="#000" d="M11.125 14.25c.247 0 .468.104.627.27-.354.43-.602.933-.727 1.48h-3.15a.875.875 0 0 1 0-1.75zm2-4.125a.875.875 0 0 1 0 1.75h-5.25a.875.875 0 1 1 0-1.75zm0-4.125a.875.875 0 0 1 0 1.75h-5.25a.875.875 0 0 1 0-1.75z" />
</svg>
